usr/share/icons/Stylish/256/apps/albert.svg

<?xml version="1.0" encoding="UTF-8" standalone="no"?>
<!-- Created with Inkscape (http://www.inkscape.org/) -->

<svg
   xmlns:dc="http://purl.org/dc/elements/1.1/"
   xmlns:cc="http://creativecommons.org/ns#"
   xmlns:rdf="http://www.w3.org/1999/02/22-rdf-syntax-ns#"
   xmlns:svg="http://www.w3.org/2000/svg"
   xmlns="http://www.w3.org/2000/svg"
   xmlns:xlink="http://www.w3.org/1999/xlink"
   xmlns:sodipodi="http://sodipodi.sourceforge.net/DTD/sodipodi-0.dtd"
   xmlns:inkscape="http://www.inkscape.org/namespaces/inkscape"
   width="256"
   height="256"
   viewBox="0 0 256 256"
   version="1.1"
   id="svg5"
   inkscape:version="0.92.5 (2060ec1f9f, 2020-04-08)"
   sodipodi:docname="albert-work.svg">
  <metadata
     id="metadata12">
    <rdf:RDF>
      <cc:Work
         rdf:about="">
        <dc:format>image/svg+xml</dc:format>
        <dc:type
           rdf:resource="http://purl.org/dc/dcmitype/StillImage" />
        <dc:title></dc:title>
      </cc:Work>
    </rdf:RDF>
  </metadata>
  <sodipodi:namedview
     id="namedview7"
     pagecolor="#ffffff"
     bordercolor="#000000"
     borderopacity="0.25"
     inkscape:showpageshadow="2"
     inkscape:pageopacity="0.0"
     inkscape:pagecheckerboard="0"
     inkscape:deskcolor="#d1d1d1"
     inkscape:document-units="px"
     showgrid="false"
     inkscape:zoom="3.1054688"
     inkscape:cx="90.002514"
     inkscape:cy="128.32201"
     inkscape:window-width="1920"
     inkscape:window-height="1022"
     inkscape:window-x="0"
     inkscape:window-y="33"
     inkscape:window-maximized="1"
     inkscape:current-layer="svg5" />
  <defs
     id="defs2">
    <linearGradient
       inkscape:collect="always"
       xlink:href="#linearGradient3147"
       id="linearGradient4780"
       x1="30"
       y1="30"
       x2="2"
       y2="2"
       gradientUnits="userSpaceOnUse"
       gradientTransform="scale(8)" />
    <linearGradient
       inkscape:collect="always"
       id="linearGradient3147">
      <stop
         style="stop-color:#41bbff;stop-opacity:1;"
         offset="0"
         id="stop3143" />
      <stop
         style="stop-color:#0091f9;stop-opacity:1;"
         offset="1"
         id="stop3145" />
    </linearGradient>
  </defs>
  <path
     d="M 104,17 C 31.190476,17 16,32.518536 16,105 v 48 c 0,72.48146 15.190476,88 88,88 h 48 c 72.80952,0 88,-15.51854 88,-88 V 105 C 240,32.518536 224.80952,17 152,17"
     style="opacity:0.2;fill:#000000;stroke-width:8;stroke-linecap:round;stroke-linejoin:round"
     id="path563" />
  <path
     id="path530"
     style="fill:url(#linearGradient4780);fill-opacity:1;stroke-width:8;stroke-linecap:round;stroke-linejoin:round"
     d="M 104,16 C 31.190548,16 16,31.518608 16,104 v 48 c 0,72.4814 15.190548,88 88,88 h 48 c 72.80946,0 88,-15.5186 88,-88 V 104 C 240,31.518608 224.80946,16 152,16 Z" />
  <path
     style="fill:#ffffff;stroke-width:0.77564085"
     d="m 54.500872,177.73335 -3.360277,-4.2839 0.491717,-8.41161 c 0.750693,-12.84178 2.54038,-20.08966 9.006465,-36.47442 C 67.885223,110.20129 73.238681,99.952045 80.783015,89.997078 91.064892,76.429837 99.875772,70.922689 112.59282,70.11464 c 15.97839,-1.015281 24.37198,5.933968 35.57533,29.453605 7.27005,15.262325 10.047,20.721745 10.5445,20.730465 0.46092,0.008 11.44613,-9.87922 28.86373,-25.978934 5.83479,-5.393295 10.81577,-9.546001 11.0688,-9.228261 0.64459,0.809409 -18.7154,24.360535 -28.4255,34.579185 -4.43745,4.66984 -8.25133,8.86295 -8.47531,9.31804 -0.72515,1.47333 1.55953,5.72716 6.91645,12.87769 6.77712,9.04622 10.46525,11.4683 17.46293,11.4683 5.71955,0 9.60129,-1.41107 20.36093,-7.40146 3.85048,-2.14377 7.29339,-3.89774 7.65091,-3.89774 0.8368,0 -0.99602,3.20967 -9.31998,16.32128 -11.01623,17.35249 -13.18899,19.30739 -24.89578,22.39967 -7.62399,2.01387 -13.09522,1.67447 -17.59352,-1.09133 -4.40225,-2.70674 -13.87434,-13.56308 -20.71561,-23.74288 -2.56274,-3.81336 -5.07697,-6.93337 -5.58714,-6.93337 -0.51019,0 -5.19627,2.99786 -10.41355,6.66194 -25.750908,18.08481 -44.991238,26.36644 -61.255887,26.36644 h -6.492975 z m 48.749938,-21.10169 c 5.99417,-1.80623 24.14851,-10.58577 27.36989,-13.23621 0.97679,-0.80364 1.94436,-2.01219 2.15014,-2.68563 0.44004,-1.43993 -4.9602,-14.59149 -9.80559,-23.88017 -1.87027,-3.58531 -6.21454,-10.07272 -9.65397,-14.41642 -5.04839,-6.37572 -7.02548,-8.260072 -10.25948,-9.77817 -4.729058,-2.219883 -11.171825,-2.474818 -14.774498,-0.584611 -5.67509,2.977538 -15.498526,16.296181 -19.790107,26.831491 -1.852188,4.54692 -2.217985,6.51678 -2.47456,13.32594 -0.261455,6.93859 -0.100233,8.51129 1.22496,11.94873 2.603621,6.75362 9.539872,13.03483 15.885004,14.38488 4.563832,0.97107 13.327104,0.13955 20.128211,-1.90983 z"
     id="path48"
     inkscape:connector-curvature="0" />
</svg>

<svg xmlns="http://www.w3.org/2000/svg" xmlns:xlink="http://www.w3.org/1999/xlink" width="256px" height="256px" viewBox="0 0 256 256" version="1.1">
<defs>
<filter id="alpha" filterUnits="objectBoundingBox" x="0%" y="0%" width="100%" height="100%">
  <feColorMatrix type="matrix" in="SourceGraphic" values="0 0 0 0 1 0 0 0 0 1 0 0 0 0 1 0 0 0 1 0"/>
</filter>
<mask id="mask0">
  <g filter="url(#alpha)">
<rect x="0" y="0" width="256" height="256" style="fill:rgb(0%,0%,0%);fill-opacity:0.2;stroke:none;"/>
  </g>
</mask>
<clipPath id="clip1">
  <rect x="0" y="0" width="256" height="256"/>
</clipPath>
<g id="surface5" clip-path="url(#clip1)">
<path style=" stroke:none;fill-rule:nonzero;fill:rgb(0%,0%,0%);fill-opacity:1;" d="M 104 17 C 31.191406 17 16 32.519531 16 105 L 16 153 C 16 225.480469 31.191406 241 104 241 L 152 241 C 224.808594 241 240 225.480469 240 153 L 240 105 C 240 32.519531 224.808594 17 152 17 "/>
</g>
<linearGradient id="linear0" gradientUnits="userSpaceOnUse" x1="30" y1="30" x2="2" y2="2" gradientTransform="matrix(8,0,0,8,0,0)">
<stop offset="0" style="stop-color:rgb(25.490198%,73.333335%,100%);stop-opacity:1;"/>
<stop offset="1" style="stop-color:rgb(0%,56.862748%,97.647059%);stop-opacity:1;"/>
</linearGradient>
</defs>
<g id="surface1">
<use xlink:href="#surface5" mask="url(#mask0)"/>
<path style=" stroke:none;fill-rule:nonzero;fill:url(#linear0);" d="M 104 16 C 31.191406 16 16 31.519531 16 104 L 16 152 C 16 224.480469 31.191406 240 104 240 L 152 240 C 224.808594 240 240 224.480469 240 152 L 240 104 C 240 31.519531 224.808594 16 152 16 Z M 104 16 "/>
<path style=" stroke:none;fill-rule:nonzero;fill:rgb(100%,100%,100%);fill-opacity:1;" d="M 54.5 177.734375 L 51.140625 173.449219 L 51.632812 165.039062 C 52.382812 152.195312 54.171875 144.949219 60.640625 128.5625 C 67.886719 110.203125 73.238281 99.953125 80.78125 89.996094 C 91.066406 76.429688 99.875 70.921875 112.59375 70.113281 C 128.570312 69.097656 136.964844 76.046875 148.167969 99.566406 C 155.4375 114.832031 158.214844 120.289062 158.710938 120.296875 C 159.171875 120.308594 170.160156 110.417969 187.578125 94.320312 C 193.410156 88.925781 198.390625 84.773438 198.644531 85.089844 C 199.289062 85.902344 179.929688 109.453125 170.21875 119.671875 C 165.78125 124.339844 161.96875 128.535156 161.746094 128.988281 C 161.019531 130.460938 163.304688 134.714844 168.660156 141.867188 C 175.4375 150.914062 179.125 153.335938 186.125 153.335938 C 191.84375 153.335938 195.726562 151.921875 206.484375 145.933594 C 210.335938 143.789062 213.777344 142.035156 214.136719 142.035156 C 214.972656 142.035156 213.140625 145.246094 204.816406 158.355469 C 193.800781 175.710938 191.625 177.664062 179.917969 180.757812 C 172.296875 182.769531 166.824219 182.429688 162.328125 179.664062 C 157.925781 176.957031 148.453125 166.101562 141.609375 155.921875 C 139.046875 152.109375 136.535156 148.988281 136.023438 148.988281 C 135.511719 148.988281 130.828125 151.988281 125.609375 155.652344 C 99.859375 173.734375 80.617188 182.015625 64.355469 182.015625 L 57.859375 182.015625 Z M 103.25 156.632812 C 109.246094 154.824219 127.398438 146.046875 130.621094 143.394531 C 131.597656 142.59375 132.566406 141.382812 132.769531 140.710938 C 133.210938 139.269531 127.8125 126.117188 122.964844 116.828125 C 121.09375 113.246094 116.75 106.757812 113.3125 102.414062 C 108.261719 96.039062 106.285156 94.152344 103.050781 92.636719 C 98.324219 90.414062 91.878906 90.160156 88.277344 92.050781 C 82.601562 95.027344 72.777344 108.347656 68.488281 118.882812 C 66.636719 123.429688 66.269531 125.398438 66.011719 132.207031 C 65.75 139.144531 65.914062 140.71875 67.238281 144.15625 C 69.839844 150.910156 76.777344 157.191406 83.121094 158.542969 C 87.6875 159.511719 96.449219 158.679688 103.25 156.632812 Z M 103.25 156.632812 "/>
</g>
</svg>
